X:85
T:Sixpenny Money
R:jig
Z:id:hn-jig-85
M:6/8
K:D
fAA fAA|BAG FGE|~D3 AFA|Bcd ede|fAA fAA|BAG FGE|~D3 AFA|dfd e2d:|
|:~f3 gfg|afd ede|fef gfg|afd e2d|~f3 gfg|afd edB|~A3 AFA|dfd e2d:|
<end>
<start>
